X: 1
T: (C'\'e la) Luna Mezzo Mare   [G]
O: Sicilian folk tune
R: jig
Z: 2010 John Chambers <jc:trillian.mit.edu>
M: 6/8
L: 1/8
K: G
|: "G"B3 A3 | G3 DEF | G2F E2D | "D7"[F6A,6] \
|     A3 G3 | F3 DE=E | FED CB,A, | "G"G,6 :|
[| "G"z2z B2B | A2G A2A | G2G A2A | G2F E2D | "D7"D3 A,3- | A,6- | A,6 |
|     z2z c2c | B2B A2G | F2E D2E | D2C B,2A, | "G"G,6- | G,6 |]

%%sep 1 1 500
%%sep 1 1 500
